X: 75
T:My Darling Asleep
R:Jig
E:10
M:6/8
L:1/8
Q:3/8=120
K:D
e|fdd cAA|BAG A2G|FAA def|gfg eag|
fdd cAA|BAG A2G|FAA def|gec d2:|
A|FAA ABA|FAA BAG|FAA def|gfg eag|
fdd cAA|BAG A2G|FAA def|gec d2:|
